icons/launchrock.svg

<?xml version="1.0" encoding="UTF-8" standalone="no"?>
<svg width="256px" height="271px" viewBox="0 0 256 271" version="1.1" xmlns="http://www.w3.org/2000/svg" xmlns:xlink="http://www.w3.org/1999/xlink" preserveAspectRatio="xMidYMid">
    <g>
        <path d="M99.8070819,202.833747 C189.955414,217.321872 189.955414,148.100831 188.345622,148.100831 L67.6112491,148.100831 C67.6112491,148.100831 22.537083,188.345622 8.04895822,201.223956 C14.4881248,226.980622 45.074166,252.737288 62.7818741,259.176455 C64.3916658,259.176455 96.5874986,207.663122 99.8070819,202.833747 L99.8070819,202.833747 Z M54.7329159,32.1958329 C54.7329159,14.4881248 46.6839577,1.42108547e-14 27.3664579,1.42108547e-14 C6.43916658,1.42108547e-14 0,14.4881248 0,32.1958329 L0,149.710623 C0,165.808539 3.21958329,181.906456 6.43916658,188.345622 L56.3427075,144.881248 C54.7329159,144.881248 54.7329159,45.074166 54.7329159,32.1958329 L54.7329159,32.1958329 Z M255.956871,32.1958329 C255.956871,14.4881248 247.907913,2.84217094e-14 228.590413,2.84217094e-14 C207.663122,2.84217094e-14 201.223956,14.4881248 201.223956,32.1958329 C201.223956,41.8545827 202.833747,114.295207 201.223956,159.369373 C201.223956,175.467289 178.686872,217.321872 127.17354,215.71208 C115.904998,215.71208 109.465832,215.71208 106.246249,214.102289 C103.026665,218.931664 78.8797906,260.786246 77.2699989,262.396038 C86.9287488,265.615621 107.85604,270.444996 127.17354,270.444996 C214.102289,270.444996 257.566663,215.71208 255.956871,143.271456 C255.956871,72.440624 255.956871,45.074166 255.956871,32.1958329 L255.956871,32.1958329 Z M122.344165,135.222498 L122.344165,85.3189571 C122.344165,67.6112491 114.295207,53.1231243 94.977707,53.1231243 C74.0504156,53.1231243 67.6112491,67.6112491 67.6112491,85.3189571 L67.6112491,135.222498 L122.344165,135.222498 L122.344165,135.222498 Z M189.955414,135.222498 L189.955414,85.3189571 C189.955414,67.6112491 181.906456,53.1231243 162.588956,53.1231243 C141.661665,53.1231243 135.222498,67.6112491 135.222498,85.3189571 L135.222498,135.222498 L189.955414,135.222498 L189.955414,135.222498 Z" fill="#DC0000"></path>
    </g>
</svg>

<svg xmlns="http://www.w3.org/2000/svg" viewBox="0 0 256 270.445">
  <path fill="#dc0000" d="M99.807 202.834c90.148 14.488 90.148-54.733 88.539-54.733H67.61S22.537 188.346 8.05 201.224c6.44 25.757 37.025 51.513 54.733 57.952 1.61 0 33.805-51.513 37.025-56.342zM54.733 32.196C54.733 14.488 46.684 0 27.366 0 6.44 0 0 14.488 0 32.196V149.71c0 16.098 3.22 32.195 6.44 38.635l49.903-43.465c-1.61 0-1.61-99.807-1.61-112.685zm201.224 0C255.957 14.488 247.907 0 228.59 0c-20.927 0-27.366 14.488-27.366 32.196 0 9.659 1.61 82.1 0 127.173 0 16.098-22.537 57.953-74.05 56.343-11.269 0-17.708 0-20.928-1.61-3.22 4.83-27.366 46.684-28.976 48.294 9.659 3.22 30.586 8.049 49.904 8.049 86.928 0 130.393-54.733 128.783-127.174V32.196zM122.344 135.222V85.32c0-17.708-8.049-32.196-27.366-32.196-20.928 0-27.367 14.488-27.367 32.196v49.903zm67.611 0V85.32c0-17.708-8.049-32.196-27.366-32.196-20.927 0-27.366 14.488-27.366 32.196v49.903z"/>
</svg>
